www/assets/icons/rule.svg

<svg width="24" height="24" viewBox="0 0 24 24" xmlns="http://www.w3.org/2000/svg" fill='currentColor'><path d="M16.45 11.0348L12.91 7.49484L14.32 6.08484L16.44 8.20484L20.68 3.96484L22.09 5.37484L16.45 11.0348ZM10.91 7.03484H1.91003V9.03484H10.91V7.03484ZM20.91 13.4448L19.5 12.0348L16.91 14.6248L14.32 12.0348L12.91 13.4448L15.5 16.0348L12.91 18.6248L14.32 20.0348L16.91 17.4448L19.5 20.0348L20.91 18.6248L18.32 16.0348L20.91 13.4448ZM10.91 15.0348H1.91003V17.0348H10.91V15.0348Z"/></svg>

<svg xmlns="http://www.w3.org/2000/svg" width="24" height="24" viewBox="0 0 24 24" fill='currentColor'><path d="m16.45 11.035-3.54-3.54 1.41-1.41 2.12 2.12 4.24-4.24 1.41 1.41zm-5.54-4h-9v2h9zm10 6.41-1.41-1.41-2.59 2.59-2.59-2.59-1.41 1.41 2.59 2.59-2.59 2.59 1.41 1.41 2.59-2.59 2.59 2.59 1.41-1.41-2.59-2.59zm-10 1.59h-9v2h9z"/></svg>
